img/platforms/4.svg

<?xml version="1.0" encoding="UTF-8"?>
<svg width="1e3" height="1000.001" enable-background="new 0 0 1000 1000" version="1.1" viewBox="0 0 1e3 1000.001" xml:space="preserve" xmlns="http://www.w3.org/2000/svg">

<g transform="matrix(1.1510805,0,0,1.1510666,-75.547713,-75.547537)" fill="#ff4747">
	<g fill="#ff4747">
		<path d="m500.006 934.393c-239.516 0-434.374-194.862-434.374-434.379 0-239.52 194.858-434.381 434.374-434.381 239.513 0 434.375 194.862 434.375 434.381 0 239.516-194.861 434.379-434.375 434.379zm73.521-602.394h-245.486l-37.247 59.858h245.204zm50.168 0.571-150.071 238.963h-166.464l38.405-59.909h99.771l38.112-59.88h-230.654l-38.104 59.88h54.641l-75.812 119.611h316.389l116.86-184.295 42.609 64.684h-38.42l-36.385 59.909h113.773l39.506 59.702h72.576z" clip-rule="evenodd" fill="#ff4747" fill-rule="evenodd"/>
	</g>
</g>
</svg>

<?xml version="1.0" encoding="UTF-8" standalone="no"?>
<!DOCTYPE svg PUBLIC "-//W3C//DTD SVG 1.1//EN" "http://www.w3.org/Graphics/SVG/1.1/DTD/svg11.dtd">
<svg width="100%" height="100%" viewBox="0 0 1000 1001" version="1.1" xmlns="http://www.w3.org/2000/svg" xmlns:xlink="http://www.w3.org/1999/xlink" xml:space="preserve" xmlns:serif="http://www.serif.com/" style="fill-rule:evenodd;clip-rule:evenodd;stroke-linejoin:round;stroke-miterlimit:2;">
    <g transform="matrix(1.12282,0,0,1.12281,-61.4193,-61.4193)">
        <g>
            <path d="M500.006,934.393C260.49,934.393 65.632,739.531 65.632,500.014C65.632,260.494 260.49,65.633 500.006,65.633C739.519,65.633 934.381,260.495 934.381,500.014C934.381,739.53 739.52,934.393 500.006,934.393ZM573.527,331.999L328.041,331.999L290.794,391.857L535.998,391.857L573.527,331.999ZM623.695,332.57L473.624,571.533L307.16,571.533L345.565,511.624L445.336,511.624L483.448,451.744L252.794,451.744L214.69,511.624L269.331,511.624L193.519,631.235L509.908,631.235L626.768,446.94L669.377,511.624L630.957,511.624L594.572,571.533L708.345,571.533L747.851,631.235L820.427,631.235L623.695,332.57Z" style="fill:rgb(76,76,76);"/>
        </g>
    </g>
</svg>
